X:1
T:Patrick O’Donovan the Piper
M:6/8
L:1/8
R:Jig
S:Joyce – Old Irish Folk Music and Songs (1909)
Z:AK/Fiddler’s Companion
K:G
G/A/ | Bd/c/B/A/ BG G/A/ | Bde/f/ g2 a/g/ | fdc B/A/G A/B/ | {d}dcB A2 g/e/ |
dG{B}A/G/ GG G/A/ | Bd(3e/f/d/ {d}gg a/g/ | g/f/d c/A/ dcA | {G/B/}AGG G2 ||
B/c/ | dd/e/f/g/ aa b/a/ | gf/d/e/d/ d2 f/g/ | Af/e/d/c/ B/A/G A/B/ | {B}dcB A2 g/e/ |
dG{B}A/F/ GGG/A/ | Bd(3e/f/d/ {d}g2 a/g/ | g/f/d c/A/ dcA | AGG G2 ||

